X: 5990
T: Canamine Highland
R: strathspey
M: 4/4
K: Bminor
|ed||c<AA2E<A AB|{d}cBAB cded|{d}c<A AA E<A A=c|BAGB d2ed|
c<A AA E<A AB|=cBAB ^cded|{d}c<A AA E<A A=c|BAGB d2ed||
=c2ceg2ge|=c2(3efg a2aB|=c2ceg2ge|dBGB {AB}A2AB|
=c2ceg2ge|=c2(3efg a2g(a|b2){b}afg2e2|[dD]BGB {AB}A2ed|
=c2ec gcec|=c2(3efg a2aB|=c2ec gce2|dBGB {AB}A2AB|
=c2ec gcec|=c2(3efg a2ab|afgfe2{f}e2|dBGB {AB}A2ed||

